X: 64
T:Mr & Mrs Mickey Mouse
M:4/4
L:1/8
Q:1/8=180
K:G
Bc|d2 B2 c2 e2|d2 B4 Bc|d2 B2 c2 e2|d2 B4 Bc|
d2 B2 G2 D2|c2 A2 F2 A2|G2 G2 GABA|1 G6|2 G8||
E2 E2 F2 F2|G2 G4  Bc|d2 d2 c2 B2|A4 A2 A2|
B2 B2 c2 c2|Bc d2 d2 c2|B2 A4 Bc|d2 B2 c2 e2
|d2 B4 Bc|d2 B2 c2 e2|d2 B4 Bc|
d2 B2 G2 D2|c2 A2 F2 A2|G2 G2 GABA|G8||
